img/organize/3.svg

<svg width="57" height="44" viewBox="0 0 57 44" fill="none" xmlns="http://www.w3.org/2000/svg">
<path d="M48.1707 14.0816V6.38161C48.1707 6.38161 37.8007 1.00161 28.4707 1.00161C14.1407 0.901609 3.39066 5.45161 1.22066 18.0016C-0.519344 30.2116 8.06067 41.3416 25.9207 42.5316C36.6107 42.8116 48.6007 37.0016 48.6007 37.0016V28.8516C48.6007 28.8516 42.2007 32.7516 36.1807 32.7516C30.1607 32.7516 23.3207 29.2816 23.3207 21.1416C23.3207 13.0016 31.6807 10.7716 33.6807 10.6116C38.7587 10.1725 43.8424 11.3899 48.1707 14.0816Z" stroke="#009245" stroke-width="2" stroke-miterlimit="10" stroke-linecap="round"/>
<path d="M10.4507 32.8521V17.1921C10.5123 16.3539 10.8971 15.5725 11.524 15.0128C12.151 14.453 12.9709 14.1587 13.8107 14.1921C14.6632 14.1568 15.4973 14.4472 16.1436 15.0044C16.7898 15.5615 17.2 16.3436 17.2906 17.1921C17.3447 17.669 17.2931 18.1521 17.1395 18.6068C16.9859 19.0615 16.7341 19.4767 16.402 19.8232C16.0698 20.1697 15.6655 20.4388 15.2177 20.6114C14.7698 20.7841 14.2894 20.856 13.8107 20.8221C13.3471 20.7567 12.8892 20.6564 12.4407 20.5222V24.4221C13.3264 24.4783 14.2149 24.4783 15.1006 24.4221C16.7382 24.2818 18.2635 23.532 19.3746 22.3209C20.4857 21.1098 21.1016 19.5257 21.1006 17.8822C21.1183 16.892 20.936 15.9084 20.5646 14.9903C20.1932 14.0723 19.6404 13.2387 18.9392 12.5394C18.238 11.8401 17.4029 11.2893 16.4839 10.9204C15.5649 10.5514 14.5808 10.3718 13.5907 10.3922C9.6807 10.3922 7.32069 12.3921 6.52069 16.1121V29.4922C6.52069 29.4922 6.86068 31.9721 10.4507 32.8521Z" fill="#009245"/>
<path d="M45.9207 25.772H51.8807V20.2919H55.0907V17.252H42.6606V20.2919H45.9207V25.772Z" stroke="#009245" stroke-width="2" stroke-miterlimit="10" stroke-linecap="round"/>
</svg>

<svg width="57" height="44" fill="none" xmlns="http://www.w3.org/2000/svg"><path d="M48.17 14.082v-7.7s-10.37-5.38-19.7-5.38c-14.33-.1-25.08 4.45-27.25 17-1.74 12.21 6.84 23.34 24.7 24.53 10.69.28 22.68-5.53 22.68-5.53v-8.15s-6.4 3.9-12.42 3.9-12.86-3.47-12.86-11.61c0-8.14 8.36-10.37 10.36-10.53a23.59 23.59 0 0114.49 3.47z" stroke="#009245" stroke-width="2" stroke-miterlimit="10" stroke-linecap="round"/><path d="M10.45 32.852v-15.66a3.24 3.24 0 013.36-3 3.36 3.36 0 013.48 3 3.27 3.27 0 01-3.48 3.63 9.32 9.32 0 01-1.37-.3v3.9a21.08 21.08 0 002.66 0 6.56 6.56 0 006-6.54 7.36 7.36 0 00-7.51-7.49c-3.91 0-6.27 2-7.07 5.72v13.38s.34 2.48 3.93 3.36z" fill="#009245"/><path d="M45.92 25.772h5.96v-5.48h3.21v-3.04H42.66v3.04h3.26v5.48z" stroke="#009245" stroke-width="2" stroke-miterlimit="10" stroke-linecap="round"/></svg>
